src/section/s3/4.svg

<svg width="66" height="66" viewBox="0 0 66 66" fill="none" xmlns="http://www.w3.org/2000/svg">
<path fill-rule="evenodd" clip-rule="evenodd" d="M2.7734 65.9135H63.2263C64.387 65.9135 65.3314 64.9732 65.3314 63.8182V61.2921C65.3314 60.7327 65.1118 60.2074 64.7141 59.8108C64.3158 59.4142 63.7876 59.1962 63.2263 59.1962H62.5642V36.7767L62.5648 32.3201V2.51745C62.5648 1.17661 61.4688 0.0859375 60.1221 0.0859375H5.87832C4.53163 0.0859375 3.4362 1.17661 3.43554 2.51811V59.1962H2.7734C1.61335 59.1962 0.668945 60.1358 0.668945 61.2915V63.8175C0.668945 64.9732 1.61335 65.9135 2.7734 65.9135ZM2.56698 61.2915C2.56698 61.1779 2.65997 61.0853 2.77406 61.0853H63.227C63.3411 61.0853 63.4341 61.1779 63.4341 61.2915V63.8175C63.4341 63.8727 63.4123 63.9246 63.3734 63.9633C63.3345 64.0021 63.2824 64.0237 63.227 64.0237H2.77406C2.65997 64.0237 2.56698 63.9311 2.56698 63.8175V61.2915ZM11.6865 59.1962H10.4322V7.60112L23.512 13.78V54.7947L11.6865 59.1962ZM60.6668 59.1962H57.4663H57.4656V6.1053C57.4656 5.61151 57.0778 5.19784 56.5832 5.16369C56.5726 5.16303 56.5627 5.16303 56.5522 5.16238L56.5503 5.16234L56.5449 5.16205C56.5425 5.16188 56.54 5.16172 56.5377 5.16172C56.5341 5.16172 56.5306 5.16156 56.5271 5.16139C56.5237 5.16123 56.5202 5.16106 56.5166 5.16106H9.48248C9.47589 5.16106 9.46863 5.16106 9.46204 5.16172C9.45973 5.16172 9.45742 5.16188 9.45511 5.16205C9.4528 5.16221 9.45049 5.16238 9.44819 5.16238H9.44159L9.40862 5.16435C9.3829 5.16632 9.35652 5.1696 9.3275 5.1742C9.32585 5.17452 9.3242 5.17469 9.32255 5.17485C9.3209 5.17502 9.31926 5.17518 9.31761 5.17551C9.3147 5.17587 9.31179 5.17643 9.30899 5.17697L9.30897 5.17698L9.30895 5.17698L9.30244 5.17814C9.26617 5.18536 9.22989 5.19455 9.19428 5.20572L9.19098 5.20703C9.19032 5.20768 9.189 5.20768 9.18769 5.20834C9.15603 5.21885 9.12503 5.23067 9.09206 5.24577C9.08713 5.24773 9.08258 5.25006 9.07784 5.25248L9.07293 5.25496L9.06766 5.25759C9.04194 5.27007 9.01622 5.28385 8.99115 5.29896L8.98819 5.3006L8.98522 5.30224C8.98192 5.30355 8.97862 5.30552 8.97533 5.30749L8.97217 5.30955L8.97071 5.31078C8.97005 5.31209 8.96873 5.31275 8.96741 5.3134C8.93378 5.33573 8.9041 5.35674 8.87772 5.37841L8.87508 5.38104C8.84936 5.40205 8.8243 5.42634 8.79924 5.45195L8.79133 5.46049L8.78341 5.46903L8.77682 5.47625C8.75967 5.49529 8.74252 5.51565 8.7267 5.53666L8.72076 5.54454L8.71837 5.5477C8.71502 5.55211 8.71141 5.55686 8.70823 5.56161C8.68779 5.58985 8.66998 5.61874 8.65415 5.64632L8.65085 5.65157C8.63371 5.68243 8.61854 5.71526 8.60337 5.75203L8.59941 5.76385L8.59678 5.77173C8.58556 5.80063 8.57699 5.82755 8.56908 5.85578C8.56776 5.86071 8.5666 5.86563 8.56545 5.87055L8.56421 5.87581L8.56182 5.88533C8.55589 5.91028 8.55061 5.93721 8.54599 5.96675L8.54402 5.97857L8.54346 5.98276L8.5427 5.98744C8.5422 5.9904 8.54171 5.99335 8.54138 5.9963C8.53676 6.03701 8.53412 6.07313 8.53412 6.10727V59.1955H5.33358V2.51745C5.33358 2.21803 5.57825 1.97507 5.87832 1.97507H60.1227C60.4235 1.97507 60.6675 2.21869 60.6675 2.51745V32.3208L60.6668 36.7773V59.1962ZM55.5649 59.1962H54.3106L42.4851 54.7947V13.78L55.5649 7.60112V59.1962ZM48.8901 59.1962H17.1069L24.2777 56.5276C24.9655 56.2715 25.41 55.6628 25.41 54.9766V13.6126C25.41 12.979 25.0328 12.407 24.4254 12.1201L13.6973 7.05217H52.3004L41.5723 12.1201C40.965 12.407 40.5877 12.979 40.5877 13.6126V54.9766C40.5877 55.6621 41.0322 56.2715 41.7201 56.5276L48.8901 59.1962ZM52.5286 33.2588H52.5365C53.1663 33.2588 53.6781 32.7637 53.6787 32.1557V13.1724C53.6787 12.5505 53.1544 12.0449 52.5101 12.0449C52.3321 12.0449 52.154 12.0863 51.9957 12.1651L45.4264 15.4364C45.0499 15.6236 44.8164 15.9959 44.8164 16.4083V32.1044C44.8164 32.7138 45.3328 33.2128 45.9672 33.2168L52.5286 33.2588ZM51.7807 31.3644L46.7144 31.3316V16.9073L51.7807 14.3845V31.3644ZM52.0831 55.8522C52.2189 55.9054 52.3627 55.933 52.5098 55.933C53.1541 55.933 53.6784 55.4267 53.6791 54.8042V35.6686C53.6791 35.0605 53.162 34.5654 52.5263 34.5654L45.9643 34.6311C45.3318 34.6377 44.8174 35.1367 44.8174 35.7441V52.2433C44.8174 52.6885 45.0911 53.0851 45.5151 53.2539L52.0831 55.8522ZM51.7804 53.6991L46.7148 51.6957H46.7141V36.5137L51.7804 36.4624V53.6991ZM12.6623 55.602C12.8832 55.8154 13.176 55.933 13.488 55.933C13.635 55.933 13.7788 55.906 13.914 55.8522L20.4833 53.2539C20.9073 53.0858 21.181 52.6892 21.181 52.2433V35.7441C21.181 35.1374 20.6659 34.6377 20.0335 34.6311L13.4603 34.5654C12.8311 34.5654 12.3193 35.0599 12.3193 35.6686V54.8042C12.3193 55.1056 12.4413 55.3886 12.6623 55.602ZM14.2167 53.6991V36.4624L19.283 36.5137V51.6957L14.2167 53.6991ZM13.4609 33.2585H13.4688L20.0302 33.2165C20.6646 33.2125 21.181 32.7135 21.181 32.1041V16.4079C21.181 15.9962 20.9476 15.6239 20.5716 15.4361L14.0024 12.1641C13.8441 12.0853 13.666 12.0439 13.488 12.0439C12.8436 12.0439 12.3193 12.5496 12.3193 13.1714V32.1547C12.3193 32.7634 12.8318 33.2585 13.4609 33.2585ZM14.2167 31.3641V14.3842L19.283 16.907V31.3313L14.2167 31.3641Z" fill="#1D1D1D"/>
</svg>

<?xml version="1.0" encoding="utf-8"?>
<!-- Generator: Adobe Illustrator 27.6.1, SVG Export Plug-In . SVG Version: 6.00 Build 0)  -->
<svg version="1.1" id="圖層_1" xmlns="http://www.w3.org/2000/svg" xmlns:xlink="http://www.w3.org/1999/xlink" x="0px" y="0px"
	 viewBox="0 0 66 66" style="enable-background:new 0 0 66 66;" xml:space="preserve">
<style type="text/css">
	.st0{fill-rule:evenodd;clip-rule:evenodd;fill:#FFFFFF;}
</style>
<path class="st0" d="M2.8,65.9h60.5c1.2,0,2.1-0.9,2.1-2.1v-2.5c0-0.6-0.2-1.1-0.6-1.5c-0.4-0.4-0.9-0.6-1.5-0.6h-0.7V36.8l0-4.5
	V2.5c0-1.3-1.1-2.4-2.4-2.4H5.9c-1.3,0-2.4,1.1-2.4,2.4v56.7H2.8c-1.2,0-2.1,0.9-2.1,2.1v2.5C0.7,65,1.6,65.9,2.8,65.9z M2.6,61.3
	c0-0.1,0.1-0.2,0.2-0.2h60.5c0.1,0,0.2,0.1,0.2,0.2v2.5c0,0.1,0,0.1-0.1,0.1c0,0-0.1,0.1-0.1,0.1H2.8c-0.1,0-0.2-0.1-0.2-0.2V61.3z
	 M11.7,59.2h-1.3V7.6l13.1,6.2v41L11.7,59.2z M60.7,59.2h-3.2h0V6.1c0-0.5-0.4-0.9-0.9-0.9c0,0,0,0,0,0l0,0l0,0c0,0,0,0,0,0
	c0,0,0,0,0,0c0,0,0,0,0,0h-47c0,0,0,0,0,0c0,0,0,0,0,0c0,0,0,0,0,0h0l0,0c0,0-0.1,0-0.1,0c0,0,0,0,0,0c0,0,0,0,0,0c0,0,0,0,0,0l0,0
	h0l0,0c0,0-0.1,0-0.1,0l0,0c0,0,0,0,0,0c0,0-0.1,0-0.1,0c0,0,0,0,0,0l0,0l0,0c0,0-0.1,0-0.1,0l0,0l0,0c0,0,0,0,0,0l0,0l0,0
	c0,0,0,0,0,0c0,0-0.1,0-0.1,0.1l0,0c0,0-0.1,0-0.1,0.1l0,0l0,0l0,0c0,0,0,0-0.1,0.1l0,0l0,0c0,0,0,0,0,0c0,0,0,0.1-0.1,0.1l0,0
	c0,0,0,0.1,0,0.1l0,0l0,0c0,0,0,0.1,0,0.1c0,0,0,0,0,0l0,0l0,0c0,0,0,0.1,0,0.1l0,0l0,0l0,0c0,0,0,0,0,0c0,0,0,0.1,0,0.1v53.1H5.3
	V2.5C5.3,2.2,5.6,2,5.9,2h54.2c0.3,0,0.5,0.2,0.5,0.5v29.8l0,4.5V59.2z M55.6,59.2h-1.3l-11.8-4.4v-41l13.1-6.2V59.2z M48.9,59.2
	H17.1l7.2-2.7c0.7-0.3,1.1-0.9,1.1-1.6V13.6c0-0.6-0.4-1.2-1-1.5L13.7,7.1h38.6l-10.7,5.1c-0.6,0.3-1,0.9-1,1.5V55
	c0,0.7,0.4,1.3,1.1,1.6L48.9,59.2z M52.5,33.3L52.5,33.3c0.6,0,1.1-0.5,1.2-1.1v-19c0-0.6-0.5-1.1-1.2-1.1c-0.2,0-0.4,0-0.5,0.1
	l-6.6,3.3c-0.4,0.2-0.6,0.6-0.6,1v15.7c0,0.6,0.5,1.1,1.2,1.1L52.5,33.3z M51.8,31.4l-5.1,0V16.9l5.1-2.5V31.4z M52.1,55.9
	c0.1,0.1,0.3,0.1,0.4,0.1c0.6,0,1.2-0.5,1.2-1.1V35.7c0-0.6-0.5-1.1-1.2-1.1L46,34.6c-0.6,0-1.1,0.5-1.1,1.1v16.5
	c0,0.4,0.3,0.8,0.7,1L52.1,55.9z M51.8,53.7l-5.1-2h0V36.5l5.1-0.1V53.7z M12.7,55.6c0.2,0.2,0.5,0.3,0.8,0.3c0.1,0,0.3,0,0.4-0.1
	l6.6-2.6c0.4-0.2,0.7-0.6,0.7-1V35.7c0-0.6-0.5-1.1-1.1-1.1l-6.6-0.1c-0.6,0-1.1,0.5-1.1,1.1v19.1C12.3,55.1,12.4,55.4,12.7,55.6z
	 M14.2,53.7V36.5l5.1,0.1v15.2L14.2,53.7z M13.5,33.3L13.5,33.3l6.6,0c0.6,0,1.2-0.5,1.2-1.1V16.4c0-0.4-0.2-0.8-0.6-1L14,12.2
	c-0.2-0.1-0.3-0.1-0.5-0.1c-0.6,0-1.2,0.5-1.2,1.1v19C12.3,32.8,12.8,33.3,13.5,33.3z M14.2,31.4v-17l5.1,2.5v14.4L14.2,31.4z"/>
</svg>
